modules/hawcons-filled/icons/icon-135-pen-angled.svg

<?xml version="1.0" encoding="UTF-8" standalone="no"?>
<svg width="32px" height="32px" viewBox="0 0 32 32" version="1.1" xmlns="http://www.w3.org/2000/svg" xmlns:xlink="http://www.w3.org/1999/xlink" xmlns:sketch="http://www.bohemiancoding.com/sketch/ns">
    <!-- Generator: Sketch 3.0.3 (7891) - http://www.bohemiancoding.com/sketch -->
    <title>icon 135 pen angled</title>
    <desc>Created with Sketch.</desc>
    <defs></defs>
    <g id="Page-1" stroke="none" stroke-width="1" fill="none" fill-rule="evenodd" sketch:type="MSPage">
        <g id="icon-135-pen-angled" sketch:type="MSArtboardGroup" fill="#929292">
            <path d="M23.1464466,12.0278086 L11.8535534,23.3207019 L11.8535534,23.3207019 L7.85355339,19.3207019 L19.1464466,8.02780864 L23.1464466,12.0278086 L23.1464466,12.0278086 Z M23.8535534,11.3207018 L25.5801067,9.59414849 C26.3642921,8.8099631 26.3661881,7.54044334 25.5897496,6.76400487 L24.4102504,5.58450561 C23.6313906,4.80564584 22.372781,4.80147421 21.5801067,5.59414851 L19.8535534,7.32070186 L23.8535534,11.3207018 L23.8535534,11.3207018 Z M11.1464466,24.0278086 L11,24.1742552 L6,25.1742552 L7,20.1742552 L7.14644661,20.0278086 L11.1464466,24.0278086 L11.1464466,24.0278086 Z" id="pen-angled" sketch:type="MSShapeGroup"></path>
        </g>
    </g>
</svg>

<svg width="32" height="32" xmlns="http://www.w3.org/2000/svg"><path d="M23.146 12.028L11.854 23.32l-4-4L19.146 8.028l4 4zm.708-.707l1.726-1.727a2.003 2.003 0 0 0 .01-2.83l-1.18-1.18a1.994 1.994 0 0 0-2.83.01l-1.726 1.727 4 4zM11.146 24.028l-.146.146-5 1 1-5 .146-.146 4 4z" fill="#929292" fill-rule="evenodd"/></svg>
